X:1
T:List Our Merry Carol
T:List Our Merry Carol
T:Harison Millard
T:George Cooper, 1873
T:Public Domain Courtesy of the Cyber Hymnal™
T:Public Domain Courtesy of the Cyber Hymnal™
C:Harison Millard
Z:Public Domain
Z:Courtesy of the Cyber Hymnal™
%%score ( 1 2 ) 3
L:1/8
M:4/4
K:Eb
V:1 treble 
V:2 treble 
V:3 bass 
V:1
"^Lively" [EG]2 [FA]2 [GB]2 [Ge]2 | [GB]4 [EG]2 z2 | [DF]2 [EG]2 [FA]2 [Ac]2 | [GB]6 z2 | %4
w: 1.~List our mer- ry|car- ol,|On this bless- èd|morn,|
w: 2.~See, the star is|beam- ing,|In the ra- diant|East,|
w: 3.~Joy- ful, joy- ful,|tid- ings|Break up- on the|earth;|
 [EG]2 [FA]2 [GB]2 [Ge]2 | [GB]4 [EG]2 z [EG] |!f! [DF]2 [DB]2 [Fd]2 [Ec]2 | [DB]6 z2 | %8
w: For our lov- ing|Sav- ior On|Christ- mas day was|born!|
w: And the song of|glo- ry Ne-|ver more hath ceased!|~|
w: Sing the Sav- ior’s|glo- ry, Tell|His won- drous worth!|~|
!pp! [Ec]2 [EF]2 [EF]2 [EF]2 | [EB]4 E2 z2 |!p! [DA]2 [^CG]2 [DA]2 [DF]2 | [EG]6 z2 | %12
w: There so peace- ful|sleep- ing,|Like a flower He|lay;|
w: Ban- ish all un-|kind- ness,|Be of gen- tle|will;|
w: Ev- ery hill and|val- ley,|Clad in pure white|snow;|
!mf!!<(! [FA]2 [EB]2 [EB]2!<)! [Ee]2!f! |!>(! [Fe]4 F2!>)! z2 | [Ac]2 [Ac]2 [GB]2 [FA]2 | %15
w: Christ, our lov- ing|Sav- ior,|Born on Christ- mas|
w: An- gels ev- er|near us|Car- rol to us|
w: Breathes a mer- ry|car- ol,|Ech- oed sweet and|
!<(! [EG]6!<)! z2 | [Ee]2 [Ed]2 [Ee]2 [EG]2 |!>(! [Ed]4 [Ec]2!>)! z2 | %18
w: day;|Christ, our lov- ing|Sav- ior,|
w: still;|An- gels ev- er|near us|
w: low;|Breathes a mer- ry|car- ol,|
!>(! [Dc]2 [DB]2 [DB]2 [B,D]2!>)! | [B,E]6 z2 ||"^Refrain" [DF]2 [DB]2 [D=A]2 [DB]2 | %21
w: Born on Christ- mas|day.||
w: Car- rol to us|still.|Car- ol, car- ol|
w: Ech- oed sweet and|low.||
 [EG]4 [EB]2 z2 | [DF]2 [EG]2 [FA]2 [DF]2 | [GB]6 z2 |!ff! [Ee]2 [Ed]2 [Ee]2 [EG]2 | %25
w: ||||
w: gai- ly,|Car- ol on our|way;|Christ, our lov- ing|
w: ||||
!>(! [Ed]4 [Ec]2!>)! z2 |"^riten." [Dc]2!>(! [DB]2 [DB]2 [B,D]2 | [B,E]6!>)! z2 |] %28
w: |||
w: Sav- ior,|Born on Christ- mas|day.|
w: |||
V:2
 x8 | x8 | x8 | x8 | x8 | x8 | x8 | x8 | x8 | x4 E2 x2 | x8 | x8 | x8 | x4 F2 x2 | x8 | x8 | x8 | %17
 x8 | x8 | x8 || x8 | x8 | x8 | x8 | x8 | x8 | x8 | x8 |] %28
V:3
 [E,B,]2 [E,B,]2 [E,B,]2 [E,B,]2 | [E,B,]4 [E,B,]2 z2 | [B,,B,]2 [B,,B,]2 [D,B,]2 [D,B,]2 | %3
 [E,B,]6 z2 | [E,B,]2 [E,B,]2 [E,B,]2 [E,B,]2 | [E,B,]4 [E,B,]2 z [E,B,] | %6
!f! [F,B,]2 [F,B,]2 [F,B,]2 [F,=A,]2 | [B,,B,]6 z2 |!pp! [A,C]2 [A,C]2 [A,C]2 [A,C]2 | %9
 [G,B,]4 [G,B,]2 z2 |!p! [F,B,]2 [=E,B,]2 [F,B,]2 [B,,B,]2 | [E,B,]6 z2 | %12
!mf! [E,B,]2 [F,B,]2 [G,B,]2 [G,B,]2 |!f! [A,C]4 [A,C]2 z2 | [B,,B,]2 [B,,B,]2 [C,B,]2 [D,B,]2 | %15
 [E,B,]6 z2 | [G,B,]2 [G,B,]2 [G,B,]2 [G,B,]2 | [A,C]4 [A,C]2 z2 | %18
 [B,,B,]2 [B,,B,]2 [B,,A,]2 [B,,A,]2 | [E,G,]6 z2 || [B,,B,]2 [B,,B,]2 [B,,B,]2 [B,,B,]2 | %21
 [E,B,]4 [E,G,]2 z2 | [B,,B,]2 [B,,B,]2 [B,,B,]2 [B,,B,]2 | [E,B,]6 z2 | %24
 [G,B,]2 [G,B,]2 [G,B,]2 [G,B,]2 | [A,C]4 [A,C]2 z2 | [B,,B,]2 [B,,B,]2 [B,,A,]2 [B,,A,]2 | %27
 [E,G,]6 z2 |] %28

